src/pos-icons/box.svg

<svg height="24" viewBox="0 0 24 24" width="24" xmlns="http://www.w3.org/2000/svg"><path d="m15.39 14.04c0-1.42-1.15-2.57-2.57-2.57-1.41 0-2.56 1.15-2.56 2.57 0 1.41 1.15 2.56 2.56 2.56 1.42 0 2.57-1.15 2.57-2.56m1.71 0c0 2.36-1.92 4.27-4.28 4.27-1.63 0-3.05-.92-3.77-2.27-.72 1.35-2.14 2.27-3.77 2.27-2.34 0-4.24-1.88-4.28-4.2v-7.11c0-.44.39-.82.86-.82s.84.38.85.82v3.62c.72-.54 1.61-.86 2.57-.86 1.63 0 3.05.92 3.77 2.27.72-1.35 2.14-2.27 3.77-2.27 2.36 0 4.28 1.92 4.28 4.28zm-9.26 0c0-1.42-1.15-2.57-2.56-2.57-1.42 0-2.57 1.15-2.57 2.57 0 1.41 1.15 2.56 2.57 2.56 1.41 0 2.56-1.15 2.56-2.56m15 2.92c.11.16.16.34.16.51 0 .26-.12.53-.34.68-.16.11-.33.17-.51.17-.25 0-.5-.11-.65-.32l-1.91-2.53-1.89 2.53c-.17.21-.42.32-.67.32-.18 0-.36-.06-.53-.17-.21-.15-.33-.43-.33-.69 0-.17.06-.35.16-.5l2.17-2.92-2.17-2.93c-.11-.15-.16-.32-.16-.5 0-.26.12-.51.33-.68.39-.28.91-.21 1.2.16l1.89 2.52 1.91-2.52c.26-.37.79-.44 1.16-.16.23.17.34.43.34.7 0 .17-.05.34-.16.48l-2.18 2.93z"/></svg>

<?xml version="1.0" encoding="UTF-8"?><!DOCTYPE svg PUBLIC "-//W3C//DTD SVG 1.1//EN" "http://www.w3.org/Graphics/SVG/1.1/DTD/svg11.dtd"><svg xmlns="http://www.w3.org/2000/svg" xmlns:xlink="http://www.w3.org/1999/xlink" version="1.1" id="mdi-box" width="24" height="24" viewBox="0 0 24 24"><path d="M15.39,14.04V14.04C15.39,12.62 14.24,11.47 12.82,11.47C11.41,11.47 10.26,12.62 10.26,14.04V14.04C10.26,15.45 11.41,16.6 12.82,16.6C14.24,16.6 15.39,15.45 15.39,14.04M17.1,14.04C17.1,16.4 15.18,18.31 12.82,18.31C11.19,18.31 9.77,17.39 9.05,16.04C8.33,17.39 6.91,18.31 5.28,18.31C2.94,18.31 1.04,16.43 1,14.11V14.11H1V7H1V7C1,6.56 1.39,6.18 1.86,6.18C2.33,6.18 2.7,6.56 2.71,7V7H2.71V10.62C3.43,10.08 4.32,9.76 5.28,9.76C6.91,9.76 8.33,10.68 9.05,12.03C9.77,10.68 11.19,9.76 12.82,9.76C15.18,9.76 17.1,11.68 17.1,14.04V14.04M7.84,14.04V14.04C7.84,12.62 6.69,11.47 5.28,11.47C3.86,11.47 2.71,12.62 2.71,14.04V14.04C2.71,15.45 3.86,16.6 5.28,16.6C6.69,16.6 7.84,15.45 7.84,14.04M22.84,16.96V16.96C22.95,17.12 23,17.3 23,17.47C23,17.73 22.88,18 22.66,18.15C22.5,18.26 22.33,18.32 22.15,18.32C21.9,18.32 21.65,18.21 21.5,18L19.59,15.47L17.7,18V18C17.53,18.21 17.28,18.32 17.03,18.32C16.85,18.32 16.67,18.26 16.5,18.15C16.29,18 16.17,17.72 16.17,17.46C16.17,17.29 16.23,17.11 16.33,16.96V16.96H16.33V16.96L18.5,14.04L16.33,11.11V11.11H16.33V11.11C16.22,10.96 16.17,10.79 16.17,10.61C16.17,10.35 16.29,10.1 16.5,9.93C16.89,9.65 17.41,9.72 17.7,10.09V10.09L19.59,12.61L21.5,10.09C21.76,9.72 22.29,9.65 22.66,9.93C22.89,10.1 23,10.36 23,10.63C23,10.8 22.95,10.97 22.84,11.11V11.11H22.84V11.11L20.66,14.04L22.84,16.96V16.96H22.84Z" /></svg>
